icons/search-off.svg

<svg width="24" height="24" viewBox="0 0 24 24" fill="none" xmlns="http://www.w3.org/2000/svg">
<g clip-path="url(#clip0)">
<path fill-rule="evenodd" clip-rule="evenodd" d="M23.7071 0.292893C24.0976 0.683417 24.0976 1.31658 23.7071 1.70711L18.8389 6.57536C19.578 7.88245 20 9.39301 20 11C20 13.1246 19.2628 15.0784 18.0319 16.6176L21.7071 20.2929C22.0976 20.6834 22.0976 21.3166 21.7071 21.7071C21.3166 22.0976 20.6834 22.0976 20.2929 21.7071L16.6176 18.0319C15.0784 19.2628 13.1246 20 11 20C9.39301 20 7.88245 19.578 6.57536 18.8389L1.70711 23.7071C1.31658 24.0976 0.683417 24.0976 0.292893 23.7071C-0.0976311 23.3166 -0.0976311 22.6834 0.292893 22.2929L22.2929 0.292893C22.6834 -0.0976311 23.3166 -0.0976311 23.7071 0.292893ZM8.0596 17.3546C8.95311 17.7689 9.94882 18 11 18C12.9333 18 14.6819 17.2176 15.9497 15.9497C17.2176 14.6819 18 12.9333 18 11C18 9.94882 17.7689 8.95311 17.3546 8.0596L8.0596 17.3546ZM11 4C7.13401 4 4 7.13401 4 11C4 12.2606 4.33233 13.4406 4.91344 14.4602C5.1869 14.9401 5.0196 15.5507 4.53977 15.8242C4.05994 16.0976 3.44928 15.9303 3.17582 15.4505C2.42729 14.1371 2 12.6169 2 11C2 6.02944 6.02944 2 11 2C12.6169 2 14.1371 2.42729 15.4505 3.17582C15.9303 3.44928 16.0976 4.05994 15.8242 4.53977C15.5507 5.0196 14.9401 5.1869 14.4602 4.91344C13.4406 4.33233 12.2606 4 11 4Z" fill="black"/>
</g>
<defs>
<clipPath id="clip0">
<rect width="24" height="24" fill="white"/>
</clipPath>
</defs>
</svg>

<svg
  width="24"
  height="24"
  viewBox="0 0 24 24"
  xmlns="http://www.w3.org/2000/svg"
>
  <g clip-path="url(#a)">
    <path
      fill-rule="evenodd"
      clip-rule="evenodd"
      d="M23.707.293a1 1 0 0 1 0 1.414L18.84 6.575A8.964 8.964 0 0 1 20 11a8.966 8.966 0 0 1-1.968 5.618l3.675 3.675a1 1 0 0 1-1.414 1.414l-3.675-3.675A8.966 8.966 0 0 1 11 20a8.964 8.964 0 0 1-4.425-1.161l-4.868 4.868a1 1 0 0 1-1.414-1.414l22-22a1 1 0 0 1 1.414 0zM8.06 17.355A6.97 6.97 0 0 0 11 18a6.975 6.975 0 0 0 4.95-2.05A6.975 6.975 0 0 0 18 11a6.97 6.97 0 0 0-.645-2.94L8.06 17.355zM11 4a7 7 0 0 0-6.087 10.46 1 1 0 0 1-1.737.99A9 9 0 0 1 15.45 3.175a1 1 0 0 1-.99 1.738A6.963 6.963 0 0 0 11 4z"
    />
  </g>
  <defs>
    <clipPath id="a">
      <rect width="24" height="24" />
    </clipPath>
  </defs>
</svg>
